X: 18419
T: Hunter's Purse, The
R: reel
M: 4/4
K: Dmixolydian
ed|:cAAB AGEF|GEAE GEDF|EAAB cBcd|eage dfed|
cAAB AGEF|GEAF GFED|EAAB cBcd|1 eage d2ed:|2 eage d2cd||
|:eaab agef|geae gede|c2ce d2df|eage d2cd|
eaag agef|geae gede|cBcd efgb|1 afge d2cd:|2 afge dfed||

